src/assets/outline/Microphone2.svg

<svg width="24" height="24" viewBox="0 0 24 24"  xmlns="http://www.w3.org/2000/svg">
<path d="M12 16.25C9.38 16.25 7.25 14.12 7.25 11.5V6C7.25 3.38 9.38 1.25 12 1.25C14.62 1.25 16.75 3.38 16.75 6V11.5C16.75 14.12 14.62 16.25 12 16.25ZM12 2.75C10.21 2.75 8.75 4.21 8.75 6V11.5C8.75 13.29 10.21 14.75 12 14.75C13.79 14.75 15.25 13.29 15.25 11.5V6C15.25 4.21 13.79 2.75 12 2.75Z" />
<path d="M12.0001 19.7499C7.3701 19.7499 3.6001 15.9799 3.6001 11.3499V9.6499C3.6001 9.2399 3.9401 8.8999 4.3501 8.8999C4.7601 8.8999 5.1001 9.2399 5.1001 9.6499V11.3499C5.1001 15.1499 8.2001 18.2499 12.0001 18.2499C15.8001 18.2499 18.9001 15.1499 18.9001 11.3499V9.6499C18.9001 9.2399 19.2401 8.8999 19.6501 8.8999C20.0601 8.8999 20.4001 9.2399 20.4001 9.6499V11.3499C20.4001 15.9799 16.6301 19.7499 12.0001 19.7499Z" />
<path d="M13.3899 7.18007C13.3099 7.18007 13.2199 7.17007 13.1299 7.14007C12.3999 6.87007 11.5999 6.87007 10.8699 7.14007C10.4799 7.28007 10.0499 7.08007 9.90988 6.69007C9.76988 6.30007 9.96988 5.87007 10.3599 5.73007C11.4199 5.35007 12.5899 5.35007 13.6499 5.73007C14.0399 5.87007 14.2399 6.30007 14.0999 6.69007C13.9799 6.99007 13.6899 7.18007 13.3899 7.18007Z" />
<path d="M12.8001 9.30007C12.7301 9.30007 12.6701 9.29007 12.6001 9.27007C12.2001 9.16007 11.7901 9.16007 11.3901 9.27007C10.9901 9.38007 10.5801 9.14007 10.4701 8.74007C10.3601 8.35007 10.6001 7.94007 11.0001 7.83007C11.6501 7.65007 12.3501 7.65007 13.0001 7.83007C13.4001 7.94007 13.6401 8.35007 13.5301 8.75007C13.4401 9.08007 13.1301 9.30007 12.8001 9.30007Z" />
<path d="M12 22.75C11.59 22.75 11.25 22.41 11.25 22V19C11.25 18.59 11.59 18.25 12 18.25C12.41 18.25 12.75 18.59 12.75 19V22C12.75 22.41 12.41 22.75 12 22.75Z" />
</svg>

<?xml version="1.0" encoding="UTF-8"?>
<svg width="24" height="24" viewBox="0 0 24 24" xmlns="http://www.w3.org/2000/svg">
 <path d="m12 16.25c-2.62 0-4.75-2.13-4.75-4.75v-5.5c0-2.62 2.13-4.75 4.75-4.75s4.75 2.13 4.75 4.75v5.5c0 2.62-2.13 4.75-4.75 4.75zm0-13.5c-1.79 0-3.25 1.46-3.25 3.25v5.5c0 1.79 1.46 3.25 3.25 3.25s3.25-1.46 3.25-3.25v-5.5c0-1.79-1.46-3.25-3.25-3.25z"/>
 <path d="m12 19.75c-4.63 0-8.4-3.77-8.4-8.4v-1.7c0-0.41 0.34-0.75 0.75-0.75s0.75 0.34 0.75 0.75v1.7c0 3.8 3.1 6.9 6.9 6.9s6.9-3.1 6.9-6.9v-1.7c0-0.41 0.34-0.75 0.75-0.75s0.75 0.34 0.75 0.75v1.7c0 4.63-3.77 8.4-8.4 8.4z"/>
 <path d="m13.39 7.1801c-0.08 0-0.17-0.01-0.26-0.04-0.73-0.27-1.53-0.27-2.26 0-0.39 0.14-0.82-0.06-0.96002-0.45-0.14-0.39 0.06-0.82 0.45002-0.96 1.06-0.38 2.23-0.38 3.29 0 0.39 0.14 0.59 0.57 0.45 0.96-0.12 0.3-0.41 0.49-0.71 0.49z"/>
 <path d="m12.8 9.3001c-0.07 0-0.13-0.01-0.2-0.03-0.4-0.11-0.81-0.11-1.21 0s-0.81-0.13-0.92-0.53c-0.11-0.39 0.13-0.8 0.53-0.91 0.65-0.18 1.35-0.18 2 0 0.4 0.11 0.64 0.52 0.53 0.92-0.09 0.33-0.4 0.55-0.73 0.55z"/>
 <path d="m12 22.75c-0.41 0-0.75-0.34-0.75-0.75v-3c0-0.41 0.34-0.75 0.75-0.75s0.75 0.34 0.75 0.75v3c0 0.41-0.34 0.75-0.75 0.75z"/>
</svg>
